X:13
T:Happy Meeting. ET.13
M:6/8
L:1/8
Q:1/4=100
S:Eliza Tennyson MS, Lincolnshire,1822
R:Quadrille
O:England;Lincolnshire;Somersby
Z:vmp.R.Greig 2011 <http://www.village-music-project.org.uk>
K:Bb
F|FdB Gec|BAf d2F|FdB Gec|AFA”^repeat added””_qu. in ms” B2:|!
|:f|fgf fbf|fed edB|AG=B cde|B3A2F|!
FdB Gec|BAg d2F|FdB Gec|AFAB2:|

